svgs/light/h1.svg

<svg xmlns="http://www.w3.org/2000/svg" viewBox="0 0 576 512"><!--! Font Awesome Pro 6.1.1 by @fontawesome - https://fontawesome.com License - https://fontawesome.com/license (Commercial License) Copyright 2022 Fonticons, Inc. --><path d="M560 416h-64V80c0-5.531-2.875-10.69-7.594-13.62c-4.734-2.906-10.61-3.156-15.56-.6875l-64 32c-7.906 3.969-11.11 13.56-7.156 21.47c3.969 7.875 13.55 11.12 21.47 7.156L464 105.9V416h-64c-8.844 0-16 7.156-16 16s7.156 16 16 16h160c8.844 0 16-7.156 16-16S568.8 416 560 416zM304 64C295.2 64 288 71.16 288 80v160H32v-160C32 71.16 24.84 64 16 64S0 71.16 0 80v352C0 440.8 7.156 448 16 448S32 440.8 32 432v-160h256v160c0 8.844 7.156 16 16 16s16-7.156 16-16v-352C320 71.16 312.8 64 304 64z"/></svg>

<svg xmlns="http://www.w3.org/2000/svg" viewBox="0 0 576 512"><!--! Font Awesome Pro 6.5.1 by @fontawesome - https://fontawesome.com License - https://fontawesome.com/license (Commercial License) Copyright 2023 Fonticons, Inc. --><path d="M496 80c0-5.7-3-10.9-7.9-13.8s-10.9-2.9-15.9-.2l-72 40c-7.7 4.3-10.5 14-6.2 21.8s14 10.5 21.8 6.2L464 107.2V416H400c-8.8 0-16 7.2-16 16s7.2 16 16 16h80 80c8.8 0 16-7.2 16-16s-7.2-16-16-16H496V80zM32 80c0-8.8-7.2-16-16-16S0 71.2 0 80V256 432c0 8.8 7.2 16 16 16s16-7.2 16-16V272H288V432c0 8.8 7.2 16 16 16s16-7.2 16-16V256 80c0-8.8-7.2-16-16-16s-16 7.2-16 16V240H32V80z"/></svg>
